Adwaita++/apps/scalable/playonlinux.svg

<svg height="128" viewBox="0 0 128 128" width="128" xmlns="http://www.w3.org/2000/svg">
  <g stroke-width="2.307692">
    <path d="m64.202822 66.753645c-.146284.0088-.291854.01662-.437199.02262.0014.05645.0078.114923.009.171277l.0046.01362h.02262c.130246-.07161.26957-.136685.401144-.207323zm-.423678.207323c-7.463511 4.101517-16.979804 6.347673-26.218449 6.855469-19.09926 9.193597-32.3751904 25.267227-14.45012 35.616003 6.86792 3.954 11.808789 4.18101 15.405648 2.6232.452702 3.89195 3.123189 8.05782 9.974459 12.02075 15.911112 9.19133 23.841383-9.28918 23.108474-29.743134-4.534966-8.546792-7.630468-18.427545-7.820012-27.372288z" opacity=".6"/>
    <path d="m64.685778 66.721552c.942886-.02031 1.896395-.07205 2.857823-.15443 27.454578-2.357947 61.366679-29.485071 38.718109-42.549595-6.858021-3.951801-11.803533-4.183996-15.399042-2.630183-.450003-3.893753-3.118509-8.059299-9.97653-12.0295501-24.867071-14.357792-29.259082 28.8028821-17.88755 53.9626541.527762 1.16736.301142 2.42733.896312 3.509642" opacity=".6"/>
    <path d="m63.781276 66.960048c.59049 27.865555 29.178982 65.014392 42.701974 41.574932 3.95191-6.8574 4.18375-11.802324 2.62985-15.399531 3.89391-.449262 8.05952-3.115916 12.03034-9.974008 15.02419-26.021948-32.932899-29.624561-57.34367-16.202293" opacity=".6"/>
    <path d="m63.781276 66.960048c-24.426071 13.423163-70.8932027 7.240317-57.3571642-16.190598 3.9654112-6.853329 8.1319722-9.526263 12.0240332-9.976251-1.557904-3.59856-1.331102-8.539437 2.623057-15.406714 15.024194-26.0219517 42.120572 13.707556 42.705574 41.560063" opacity=".6"/>
    <path d="m64.202822 62.753645c-.146284.0088-.291854.01662-.437199.02262.0014.05645.0078.114923.009.171277l.0046.01362h.02262c.130246-.07161.26957-.136685.401144-.207323zm-.423678.207323c-7.463511 4.101517-16.979804 6.347673-26.218449 6.855469-19.09926 9.193597-32.3751904 25.267227-14.45012 35.616003 6.86792 3.954 11.808789 4.18101 15.405648 2.6232.452702 3.89195 3.123189 8.05782 9.974459 12.02075 15.911112 9.19133 23.841383-9.28918 23.108474-29.743134-4.534966-8.546792-7.630468-18.427545-7.820012-27.372288z" fill="#3584e4"/>
    <path d="m64.685778 62.721552c.942886-.02031 1.896395-.07205 2.857823-.15443 27.454578-2.357947 61.366679-29.485071 38.718109-42.549595-6.858021-3.951801-11.803533-4.183996-15.399042-2.630183-.450003-3.893753-3.118509-8.0592994-9.97653-12.0295501-24.867071-14.357792-29.259082 28.8028821-17.88755 53.9626541.527762 1.16736.301142 2.42733.896312 3.509642" fill="#e01b24"/>
    <path d="m63.781276 62.960048c.59049 27.865555 29.178982 65.014392 42.701974 41.574932 3.95191-6.857401 4.18375-11.802324 2.62985-15.399531 3.89391-.449262 8.05952-3.115916 12.03034-9.974008 15.02419-26.021948-32.932899-29.624561-57.34367-16.202293" fill="#f6d32d"/>
    <path d="m63.781276 62.960048c-24.426071 13.423163-70.8932027 7.240317-57.3571642-16.190598 3.9654112-6.853329 8.1319722-9.526263 12.0240332-9.976251-1.557904-3.59856-1.331102-8.539437 2.623057-15.406714 15.024194-26.0219517 42.120572 13.707556 42.705574 41.560063" fill="#33d17a"/>
  </g>
</svg>

<?xml version="1.0" encoding="UTF-8" standalone="no"?>
<svg
   xmlns:dc="http://purl.org/dc/elements/1.1/"
   xmlns:cc="http://creativecommons.org/ns#"
   xmlns:rdf="http://www.w3.org/1999/02/22-rdf-syntax-ns#"
   xmlns:svg="http://www.w3.org/2000/svg"
   xmlns="http://www.w3.org/2000/svg"
   xmlns:sodipodi="http://sodipodi.sourceforge.net/DTD/sodipodi-0.dtd"
   xmlns:inkscape="http://www.inkscape.org/namespaces/inkscape"
   width="128"
   height="128"
   version="1.1"
   viewBox="0 0 128 128"
   id="svg28"
   sodipodi:docname="playonlinux.svg"
   inkscape:version="0.92.3 (2405546, 2018-03-11)">
  <metadata
     id="metadata34">
    <rdf:RDF>
      <cc:Work
         rdf:about="">
        <dc:format>image/svg+xml</dc:format>
        <dc:type
           rdf:resource="http://purl.org/dc/dcmitype/StillImage" />
        <dc:title></dc:title>
      </cc:Work>
    </rdf:RDF>
  </metadata>
  <defs
     id="defs32" />
  <sodipodi:namedview
     pagecolor="#ffffff"
     bordercolor="#666666"
     borderopacity="1"
     objecttolerance="10"
     gridtolerance="10"
     guidetolerance="10"
     inkscape:pageopacity="0"
     inkscape:pageshadow="2"
     inkscape:window-width="1920"
     inkscape:window-height="1009"
     id="namedview30"
     showgrid="false"
     inkscape:zoom="3.6875"
     inkscape:cx="32"
     inkscape:cy="32"
     inkscape:window-x="0"
     inkscape:window-y="34"
     inkscape:window-maximized="1"
     inkscape:current-layer="svg28" />
  <path
     inkscape:connector-curvature="0"
     id="path1626"
     d="m 64.202822,66.753645 c -0.146284,0.0088 -0.291854,0.01662 -0.437199,0.02262 0.0014,0.05645 0.0078,0.114923 0.009,0.171277 l 0.0046,0.01362 h 0.02262 c 0.130246,-0.07161 0.26957,-0.136685 0.401144,-0.207323 z m -0.423678,0.207323 c -7.463511,4.101517 -16.979804,6.347673 -26.218449,6.855469 -19.09926,9.193597 -32.3751904,25.267227 -14.45012,35.616003 6.86792,3.954 11.808789,4.18101 15.405648,2.6232 0.452702,3.89195 3.123189,8.05782 9.974459,12.02075 15.911112,9.19133 23.841383,-9.28918 23.108474,-29.743134 C 67.06419,85.786464 63.968688,75.905711 63.779144,66.960968 Z"
     style="fill:#000000;fill-opacity:1;stroke-width:2.30769229;opacity:0.6" />
  <path
     inkscape:connector-curvature="0"
     id="path1628"
     d="m 64.685778,66.721552 c 0.942886,-0.02031 1.896395,-0.07205 2.857823,-0.15443 C 94.998179,64.209175 128.91028,37.082051 106.26171,24.017527 99.403689,20.065726 94.458177,19.833531 90.862668,21.387344 90.412665,17.493591 87.744159,13.328045 80.886138,9.3577939 56.019067,-4.9999981 51.627056,38.160676 62.998588,63.320448 c 0.527762,1.16736 0.301142,2.42733 0.896312,3.509642"
     style="fill:#000000;fill-opacity:1;stroke-width:2.30769229;opacity:0.6" />
  <path
     inkscape:connector-curvature="0"
     id="path1630"
     d="m 63.781276,66.960048 c 0.59049,27.865555 29.178982,65.014392 42.701974,41.574932 3.95191,-6.8574 4.18375,-11.802324 2.62985,-15.399531 3.89391,-0.449262 8.05952,-3.115916 12.03034,-9.974008 C 136.16763,57.139493 88.210541,53.53688 63.79977,66.959148"
     style="fill:#000000;fill-opacity:1;stroke-width:2.30769229;opacity:0.6" />
  <path
     inkscape:connector-curvature="0"
     id="path1632"
     d="M 63.781276,66.960048 C 39.355205,80.383211 -7.1119267,74.200365 6.4241118,50.76945 10.389523,43.916121 14.556084,41.243187 18.448145,40.793199 16.890241,37.194639 17.117043,32.253762 21.071202,25.386485 36.095396,-0.6354667 63.191774,39.094041 63.776776,66.946548"
     style="fill:#000000;fill-opacity:1;stroke-width:2.30769229;opacity:0.6" />
  <path
     style="fill:#3584e4;stroke-width:2.30769229;fill-opacity:1"
     d="m 64.202822,62.753645 c -0.146284,0.0088 -0.291854,0.01662 -0.437199,0.02262 0.0014,0.05645 0.0078,0.114923 0.009,0.171277 l 0.0046,0.01362 h 0.02262 c 0.130246,-0.07161 0.26957,-0.136685 0.401144,-0.207323 z m -0.423678,0.207323 c -7.463511,4.101517 -16.979804,6.347673 -26.218449,6.855469 -19.09926,9.193597 -32.3751904,25.267227 -14.45012,35.616003 6.86792,3.954 11.808789,4.18101 15.405648,2.6232 0.452702,3.89195 3.123189,8.05782 9.974459,12.02075 15.911112,9.19133 23.841383,-9.28918 23.108474,-29.743134 C 67.06419,81.786464 63.968688,71.905711 63.779144,62.960968 Z"
     id="path12"
     inkscape:connector-curvature="0" />
  <path
     style="fill:#e01b24;stroke-width:2.30769229;fill-opacity:1"
     d="m 64.685778,62.721552 c 0.942886,-0.02031 1.896395,-0.07205 2.857823,-0.15443 C 94.998179,60.209175 128.91028,33.082051 106.26171,20.017527 99.403689,16.065726 94.458177,15.833531 90.862668,17.387344 90.412665,13.493591 87.744159,9.3280446 80.886138,5.3577939 56.019067,-8.9999981 51.627056,34.160676 62.998588,59.320448 c 0.527762,1.16736 0.301142,2.42733 0.896312,3.509642"
     id="path14"
     inkscape:connector-curvature="0" />
  <path
     style="fill:#f6d32d;stroke-width:2.30769229;fill-opacity:1"
     d="m 63.781276,62.960048 c 0.59049,27.865555 29.178982,65.014392 42.701974,41.574932 3.95191,-6.857401 4.18375,-11.802324 2.62985,-15.399531 3.89391,-0.449262 8.05952,-3.115916 12.03034,-9.974008 C 136.16763,53.139493 88.210541,49.53688 63.79977,62.959148"
     id="path16"
     inkscape:connector-curvature="0" />
  <path
     style="fill:#33d17a;stroke-width:2.30769229;fill-opacity:1"
     d="M 63.781276,62.960048 C 39.355205,76.383211 -7.1119267,70.200365 6.4241118,46.76945 10.389523,39.916121 14.556084,37.243187 18.448145,36.793199 16.890241,33.194639 17.117043,28.253762 21.071202,21.386485 36.095396,-4.6354667 63.191774,35.094041 63.776776,62.946548"
     id="path18"
     inkscape:connector-curvature="0" />
</svg>
